X:1
T: Flying Cloud Cotillion
C: R-87
C: New England
M: C|
Z:
R: reel
K: G
Bc| "G"dcBc dcBc| dBd2 g2g2| "C"cBAB cBce| "D"agfe dcBc|
    "G"dcBc dcBc| dBd2 g2g2| "C"cBAG FGAF| "G"DGGF G2 :| \K: D\
|:\
FG| "D"ABAG FGAc| dcde fed2| "A"a2g2 e2e2| "D"b2a2 fedB|
    "D"ABAG FGAc| dcde fedB| "A"ABcd egfe| "D"d2fe d2 :|
%
